X: 12357
T: Falls Of Richmond
R: reel
M: 4/4
K: Adorian
P:ABCB
P:A
|:EGA2 A2A2|G2AB c2A2|EGA2 A2AB|cABG EAA2|
EGA2 A2A2|G2AB c2d2|e2e2 Acec|BGG2 A4:|
P:B
|e2e2 Acec|BG2A c2d2|e2e2 Acec|BG2G A4|
Acec Acec|BG2A c2d2|e2e2 Acec|BG2G A4||
P:C
|:eaa2 a2aa|baba ^c'2a2|eaa2 a2aa|bab2 [1 a2aa:|2 a4||

